X:176
T:London Military Association Dance. THO5.176, The
M:C
L:1/8
B:Thompson's Complete Collection of 200 Favourite Dances Vol.5
F:https://www.libraryofdance.org/manuals/1780c-Thompson-Compleat-5.pdf
Z:vmp. Peter Dunk 2024
Q:1/4=110
K:D
[D2A2f2] [A2e2] d/c/d/e/ df/g/|adcd e/d/e/f/ e/g/f/e/|\\
f2e2 d/c/d/e/ d/e/f/g/|adcd e2z2:|
%
|:A>BAa ag/f/ g2|A>BAg gf/e/ fg|a2d2 ed/c/ dg|fe/d/ e2d2 z2:|
W:
W:Right hands half round left hands back again ./.
W:Lead down the middle, up again & cast off ./:
W:Allemand with yout right hand then with your left :/.
W:Righ & Left at top :/:

